X:1
T:Queen of May (The)
M:2/4
L:1/16
Q:90
C:Trad
Z:dt king 
R:Hornpipe
K:G
Bc | dBcA Ggfe | edce d2cB | Aced cBAG | FAGE D2Bc |
| dBcA Ggfe | edce dgfe | dBcA BGAF | G2GG G2 :|
cB | ADEA GBdg | edce dgdB | ADFA GBdg| edce dgba |
| gbfa egdf | ceBd AcGB | A2cB ADFA | G2GG G2 :|
